X:1
T:Na Connerys
M:3/4
L:1/8
Q:60
K:D
DDE|(F>G) E>F GA|B>c (AG) FG|(E2D3) C|D3 z (3ABc|dB (c3B)|(A>B) A/2G/2 (E E/2 F/2) (G/2A/2)|
(B2c2)B2|A3z(3ABc|dd(c3 B)|(A>BA/2G/2 E (3EGB|B2c2B2|A3DDE|F>G (E>F) GA| B>c A>G F>G|(E2D3)C|D3||
W:
W: A Choimn mhallaithe gumse deacair ort agus grin Mhic D
W: ar an ghasra d at ceangailte go dlth le do thaobh;
W: Is iad a dhearbhaigh na leabhartha go humhal sa mbrag
W: do chuir na Connerys thar farraigaibh go dt na New South Wales.
W:
W: T bhadh ina sheasamh ann is dhanfadh machnamh ar r gcis d pl
W: mar do sheasaigh s n seacht ar maidin do dt tar is an naoi
W: do chrith an talamh finn le linn na leabhartha  dtabhairt sa mbrag.
W: Mo ghreidhn an t-anam bocht n t s damanta, ms for do chlir.
W:
W: A Bhainron bheannaithe is a R na bhFlaitheas Geal, dan trcaire orainn araon
W: is ar an mbanaltra at sa bhaile go dch inr ndiaidh.
W: Le linn an Aifrinn bgi ag agallamh is ag gu chun D
W: leis na Connerys a thabhairt abhaile chugainn  na New South Wales.
